svgs/sharp-light/square-chevron-right.svg

<svg xmlns="http://www.w3.org/2000/svg" viewBox="0 0 448 512"><!--! Font Awesome Pro 7.1.0 by @fontawesome - https://fontawesome.com License - https://fontawesome.com/license (Commercial License) Copyright 2025 Fonticons, Inc. --><path fill="currentColor" d="M416 64l-384 0 0 384 384 0 0-384zm32-32l0 448-448 0 0-448 448 0zM315.3 267.3l-112 112-11.3 11.3-22.6-22.6 11.3-11.3 100.7-100.7-100.7-100.7-11.3-11.3 22.6-22.6 11.3 11.3 112 112 11.3 11.3-11.3 11.3z"/></svg>

<svg xmlns="http://www.w3.org/2000/svg" viewBox="0 0 448 512"><!--! Font Awesome Pro 6.7.2 by @fontawesome - https://fontawesome.com License - https://fontawesome.com/license (Commercial License) Copyright 2024 Fonticons, Inc. --><path d="M416 64L32 64l0 384 384 0 0-384zm32-32l0 32 0 384 0 32-32 0L32 480 0 480l0-32L0 64 0 32l32 0 384 0 32 0zM315.3 267.3l-112 112L192 390.6 169.4 368l11.3-11.3L281.4 256 180.7 155.3 169.4 144 192 121.4l11.3 11.3 112 112L326.6 256l-11.3 11.3z"/></svg>
